svgs/vita3k.svg

<svg width="192" height="192" viewBox="0 0 192 192" fill="none" xmlns="http://www.w3.org/2000/svg">
<path d="M133.778 134.128C129.343 145.115 118.307 151.326 104.708 152.422M133.778 134.128C122.556 131.356 118.043 131.504 112.882 134.533C107.883 138.163 106.064 142.025 104.708 152.422M133.778 134.128L164.306 58.4906M104.708 152.422C90.6884 153.552 73.9447 149.245 58.897 139.128L42.2526 127.937C19.0183 112.315 15.162 89.6838 29.08 77.0519L84.287 26.9456C90.8437 20.9944 108.216 20.3458 124.891 25.371L136.241 28.7915C145.295 31.5199 153.222 35.4975 158.682 39.8458M164.306 58.4906L165.928 54.4727C167.758 49.9395 164.735 44.665 158.682 39.8458M164.306 58.4906C160.512 57.0501 155.83 54.7616 154 49C153.231 47.4277 155.023 39.8458 158.682 39.8458M165.928 58.4906C170.648 58.4906 173.09 68.8685 168.952 77.0519L138.43 152.422C129.424 173.819 88.5429 176.093 58.897 156.978L42.2526 146.246C25.7699 135.618 19.0395 121.606 21.4888 110.036L22.4743 105.603" stroke="black" stroke-width="10" stroke-linecap="round"/>
<path d="M45.7866 80.4479L90.9545 38.9193C91.0439 38.8368 91.2917 38.8274 91.5099 38.8975L143.471 55.7555C143.758 55.8483 143.938 56.01 143.878 56.1181L111.503 113.524C111.38 113.743 110.978 113.766 110.604 113.577L45.9568 80.9524C45.6978 80.8224 45.623 80.5978 45.7866 80.4479Z" stroke="black" stroke-width="6" stroke-linecap="round" stroke-linejoin="round"/>
<path d="M110.151 32.7295C111.729 33.1898 112.602 34.006 112.087 34.5535C111.567 35.106 109.839 35.1695 108.244 34.6943C106.661 34.2228 105.825 33.404 106.363 32.8664C106.896 32.3336 108.585 32.2726 110.151 32.7295ZM122.91 36.4525C124.586 36.9415 125.574 37.8084 125.101 38.3901C124.623 38.9771 122.847 39.0442 121.152 38.5391C119.469 38.0379 118.521 37.168 119.018 36.5974C119.512 36.0317 121.248 35.9673 122.91 36.4525ZM120.419 34.2489C119.936 34.7987 118.216 34.8618 116.592 34.389C114.981 33.9195 114.093 33.1044 114.594 32.5693C115.091 32.0388 116.773 31.9783 118.367 32.4332C119.971 32.8914 120.898 33.7037 120.419 34.2489ZM116.5 38.7146C115.983 39.3044 114.199 39.3719 112.534 38.8641C110.881 38.3605 109.99 37.4865 110.527 36.9133C111.058 36.345 112.802 36.2805 114.435 36.7678C116.082 37.259 117.013 38.1303 116.5 38.7146ZM139.046 40.4312C142.283 41.3847 144.342 43.0903 143.588 44.2457C142.822 45.4208 139.465 45.555 136.149 44.5408C132.881 43.5418 130.963 41.8255 131.808 40.711C132.638 39.6149 135.855 39.4915 139.046 40.4312ZM85.1112 116.979C89.4427 119.262 91.6089 123.374 89.818 126.183C87.9789 129.069 82.7553 129.386 78.293 126.874C73.9335 124.421 72.1054 120.269 74.0727 117.613C75.9903 115.024 80.8755 114.747 85.1112 116.979Z" stroke="black" stroke-width="6"/>
<path d="M59.9467 116.852L56.3088 114.382L54.0623 109.117L60.0402 108.813L63.6781 111.283L59.9467 116.852Z" stroke="black" stroke-width="6" stroke-linecap="round" stroke-linejoin="round"/>
<path d="M37.1267 101.357L40.7647 103.827L46.4555 103.952L44.4962 98.2586L40.8582 95.7884L37.1267 101.357Z" stroke="black" stroke-width="6" stroke-linecap="round" stroke-linejoin="round"/>
<path d="M61.4436 96.5992L58.9897 100.262L53.7595 102.523L53.4577 96.505L55.9115 92.8428L61.4436 96.5992Z" stroke="black" stroke-width="6" stroke-linecap="round" stroke-linejoin="round"/>
<path d="M40.0528 116.511L42.5067 112.849L47.7368 110.587L48.0388 116.605L45.5849 120.267L40.0528 116.511Z" stroke="black" stroke-width="6" stroke-linecap="round" stroke-linejoin="round"/>
</svg>

<svg width="192" height="192" viewBox="0 0 192 192" fill="none" xmlns="http://www.w3.org/2000/svg"><path d="M133.778 134.128c-4.435 10.987-15.471 17.198-29.07 18.294m29.07-18.294c-11.222-2.772-15.735-2.624-20.896.405-4.999 3.63-6.818 7.492-8.174 17.889m29.07-18.294 30.528-75.637m-59.598 93.931c-14.02 1.13-30.763-3.177-45.811-13.294l-16.644-11.191C19.018 112.315 15.162 89.684 29.08 77.052l55.207-50.106c6.557-5.952 23.929-6.6 40.604-1.575l11.35 3.42c9.054 2.729 16.981 6.707 22.441 11.055m5.624 18.645 1.622-4.018c1.83-4.533-1.193-9.808-7.246-14.627m5.624 18.645C160.512 57.05 155.83 54.76 154 49c-.769-1.572 1.023-9.154 4.682-9.154m7.246 18.645c4.72 0 7.162 10.377 3.024 18.56l-30.522 75.371c-9.006 21.397-49.887 23.671-79.533 4.556l-16.644-10.732c-16.483-10.628-23.213-24.64-20.764-36.21l.985-4.433" stroke="#000" stroke-width="10" stroke-linecap="round"/><path d="m45.787 80.448 45.167-41.529c.09-.082.338-.092.556-.021l51.961 16.857c.287.093.467.255.407.363l-32.375 57.406c-.123.219-.525.242-.899.053L45.957 80.952c-.26-.13-.334-.354-.17-.504Z" stroke="#000" stroke-width="6" stroke-linecap="round" stroke-linejoin="round"/><path d="M110.151 32.73c1.578.46 2.451 1.276 1.936 1.824-.52.552-2.248.615-3.843.14-1.583-.471-2.419-1.29-1.881-1.828.533-.532 2.222-.593 3.788-.136Zm12.759 3.723c1.676.488 2.664 1.355 2.191 1.937-.478.587-2.254.654-3.949.15-1.683-.502-2.631-1.372-2.134-1.943.494-.565 2.23-.63 3.892-.145Zm-2.491-2.204c-.483.55-2.203.613-3.827.14-1.611-.47-2.499-1.285-1.998-1.82.497-.53 2.179-.59 3.773-.136 1.604.458 2.531 1.27 2.052 1.816Zm-3.919 4.466c-.517.59-2.301.657-3.966.15-1.653-.505-2.544-1.379-2.007-1.952.531-.568 2.275-.632 3.908-.145 1.647.491 2.578 1.362 2.065 1.947Zm22.546 1.716c3.237.954 5.296 2.66 4.542 3.815-.766 1.175-4.123 1.309-7.439.295-3.268-1-5.186-2.715-4.341-3.83.83-1.096 4.047-1.22 7.238-.28ZM85.111 116.98c4.332 2.283 6.498 6.395 4.707 9.204-1.84 2.886-7.063 3.203-11.525.691-4.36-2.453-6.188-6.605-4.22-9.261 1.917-2.589 6.803-2.866 11.038-.634Z" stroke="#000" stroke-width="6"/><path d="m59.947 116.852-3.638-2.47-2.247-5.265 5.978-.304 3.638 2.47-3.731 5.569ZM37.127 101.357l3.638 2.47 5.69.125-1.959-5.693-3.638-2.47-3.731 5.568ZM61.444 96.6l-2.454 3.662-5.23 2.261-.302-6.018 2.453-3.662 5.533 3.756ZM40.053 116.511l2.454-3.662 5.23-2.262.302 6.018-2.454 3.662-5.532-3.756Z" stroke="#000" stroke-width="6" stroke-linecap="round" stroke-linejoin="round"/></svg>
